!!!COM: Palestrina, Giovanni Perluigi da
!!!OPR: Quam pulchra es
!!!OTL: Credo
**kern	**kern	**kern	**kern
*Ibass	*Itenor	*Icalto	*Icant
!Bassus	!Tenor	!Altus	!Cantus
*clefF4	*clefGv2	*clefG2	*clefG2
*k[]	*k[]	*k[]	*k[]
*C:ion	*C:ion	*C:ion	*C:ion
*M4/2	*M4/2	*M4/2	*M4/2
=1	=1	=1	=1
0r	1g	2r	1r
.	.	2g	.
.	2c	2g	2r
.	2c	2g	2cc
=2	=2	=2	=2
1r	2f	2a	2cc
.	2a	2a	2cc
1G	1g	1b	2dd
.	.	.	2dd
=3	=3	=3	=3
2C	1e	2g	1ee
2C	.	2g	.
2F	1r	2a	2cc
2A	.	2cc	2cc
=4	=4	=4	=4
2G	0r	2b	2dd
2F	.	2a	2ff
1G	.	2.b	2ee
.	.	.	2dd
.	.	4a	.
=5	=5	=5	=5
1C	2r	4g	4ee
.	.	4f	4dd
.	2c	2e	4cc
.	.	.	4b
1r	2d	4f	2.a
.	.	4g	.
.	2f	4a	.
.	.	4f	4b
=6	=6	=6	=6
0r	2e	2g	2cc
.	2d	2a	2dd
.	2.e	2g	2b
.	.	[2c	[2ee
.	4d	.	.
=7	=7	=7	=7
1r	4c	4c]	4ee]
.	4B	4d	4dd
.	2A	4e	1cc
.	.	4c	.
2r	1G	1d	.
2G	.	.	2b
=8	=8	=8	=8
2A	2c	4c	1cc
.	.	4d	.
2c	2c	4e	.
.	.	4f	.
2B	2d	2g	1r
2A	2f	2a	.
=9	=9	=9	=9
2c	2e	1g	0r
2B	2d	.	.
2.A	4e	1r	.
.	4d	.	.
.	4c	.	.
4G	4B	.	.
=10	=10	=10	=10
4F	4A	1r	2r
4G	4B	.	.
2E	1c	.	2cc
1D	.	2r	2dd
.	2B	2d	2ff
=11	=11	=11	=11
2C	1c	2e	4ee
.	.	.	4dd
2E	.	2g	4cc
.	.	.	4b
2F	2r	2.f	4a
.	.	.	4b
2A	2c	.	4cc
.	.	8e	4a
.	.	8f	.
=12	=12	=12	=12
2G	2d	2g	2b
4F	1f	1a	4a
4G	.	.	4b
4A	.	.	4cc
4B	.	.	4dd
[2c	4e	4g	[2ee
.	4d	4f	.
=13	=13	=13	=13
2c]	2e	2g	4ee]
.	.	.	4dd
2F	2f	2a	1cc
1G	2d	1g	.
.	2d	.	2b
=14	=14	=14	=14
0C	0c	1e	1cc
.	.	2r	2r
.	.	2e	2ee
=15	=15	=15	=15
0r	1r	1g	2dd
.	.	.	2ee
.	1A	2a	2cc
.	.	2a	[2ff
=16	=16	=16	=16
0r	1c	2.g	4ff]
.	.	.	4ee
.	.	.	1ee
.	.	8f	.
.	.	8e	.
.	2d	2f	.
.	2d	2f	2dd
=17	=17	=17	=17
2r	2c	2e	1ee
2E	4B	2e	.
.	4A	.	.
1G	2B	2d	1r
.	2B	[2e	.
=18	=18	=18	=18
1A	1c	4e]	2r
.	.	4d	.
.	.	4e	2e
.	.	4c	.
2.G	2B	2d	1g
.	2B	[2e	.
8F	.	.	.
8E	.	.	.
=19	=19	=19	=19
1F	2.A	2e]	1a
.	.	2d	.
.	4B	.	.
2C	2.c	1e	2.g
2C	.	.	.
.	4B	.	8f
.	.	.	8e
=20	=20	=20	=20
2D	1A	2r	1f
2D	.	2d	.
1E	2G	2B	1e
.	2g	2B	.
=21	=21	=21	=21
1C	2e	1c	2r
.	2e	.	2g
1r	1f	2A	2a
.	.	2d	2a
=22	=22	=22	=22
0r	2d	2G	2b
.	1e	2.g	4g
.	.	.	4a
.	.	.	4b
.	.	4e	4cc
.	4d	2f	[2dd
.	4c	.	.
=23	=23	=23	=23
1r	2B	2g	4dd]
.	.	.	4b
.	2A	2.a	2cc
2r	2e	.	2b
.	.	4g	.
2C	2e	[2g	2cc
=24	=24	=24	=24
2D	2.d	2g]	2a
2D	.	2f#	2a
.	4c	.	.
2E	2B	2g	[1g
4C	[2c	[2e	.
4D	.	.	.
=25	=25	=25	=25
4E	2c]	2e]	0g]
4F	.	.	.
4G	2B	4d	.
4A	.	4c	.
4B	2.G	2d	.
4c	.	.	.
[2d	.	2B	.
.	4A	.	.
=26	=26	=26	=26
2d]	2B	2d	2r
1c	2c	2e	1g
.	1G	1d	.
2B	.	.	2d
=27	=27	=27	=27
2.c	2r	1g	4e
.	.	.	4f
.	2c	.	4g
8B	.	.	4a
8A	.	.	.
2G	2d	2g	4b
.	.	.	4cc
2F	[2f	[2a	[2dd
=28	=28	=28	=28
1A	4f]	2a]	4dd]
.	4e	.	4cc
.	4d	2f	1cc
.	4c	.	.
1G	2d	1g	.
.	2d	.	2b
=29	=29	=29	=29
0C	2c	2r	0cc
.	1e	1g	.
.	2c	2e	.
=30	=30	=30	=30
1r	2d	2f	1r
.	2e	2g	.
2r	2f	1a	[1cc
[2A	4e	.	.
.	4d	.	.
=31	=31	=31	=31
2A]	2e	1a	2cc]
2F	2f	.	2a
2G	2d	2r	2b
2A	[2a	[2f	2cc
=32	=32	=32	=32
1B-	2a]	2f]	1dd
.	2g	2d	.
1A	1a	2e	1cc
.	.	2f	.
=33	=33	=33	=33
0r	2r	2.g	2.b
.	1e	.	.
.	.	4f	4a
.	.	2g	2b
.	2c	[2a	2cc
=34	=34	=34	=34
1r	2d	2a]	1b
.	2e	2g#	.
2r	2f	[1a	4a
.	.	.	4b
[2A	4e	.	4cc
.	4d	.	4dd
=35	=35	=35	=35
2A]	4c	1a]	2ee
.	8d	.	.
.	8e	.	.
2F	2f	.	1dd
2G	1e	1r	.
2A	.	.	2cc#
=36	=36	=36	=36
4B-	1.d	0r	1dd
4A	.	.	.
4G	.	.	.
4F	.	.	.
2G	.	.	1r
[2A	2c	.	.
=37	=37	=37	=37
2A]	1B	1r	2r
2G#	.	.	2ee
1A	2r	2r	2ee
.	2A	2a	2cc
=38	=38	=38	=38
0r	2d	2a	1dd
.	2d	2f	.
.	2.c	2g	2.ee
.	.	[2a	.
.	4d	.	8dd
.	.	.	8cc
=39	=39	=39	=39
0r	2e	4a]	2b
.	.	4g	.
.	2c	1g	2cc
.	1d	.	1a
.	.	2f#	.
=40	=40	=40	=40
2r	1e	1g	2r
2E	.	.	2b
2A	2e	1r	2cc
2A	2c	.	2cc
=41	=41	=41	=41
2G	2d	1r	2b
2F	2d	.	2a
1E	2.e	2r	4g
.	.	.	4a
.	.	[2g	4b
.	8d	.	4cc
.	8c	.	.
=42	=42	=42	=42
2r	2B	2g]	4dd
.	.	.	8cc
.	.	.	8dd
1c	2c	2e	2ee
.	1A	1f	1cc
2A	.	.	.
=43	=43	=43	=43
1B	1G	2.g	1r
.	.	4f	.
[1c	1r	4e	[1ee
.	.	4d	.
.	.	2c	.
=44	=44	=44	=44
2c]	2r	1cc	2ee]
2A	1a	.	2cc
1d	.	2a	1dd
.	2f	2b	.
=45	=45	=45	=45
1c	1g	0cc	1ee
2r	2.a	.	1ee
2A	.	.	.
.	8g	.	.
.	8f	.	.
=46	=46	=46	=46
2A	2e	1a	1.cc
2F	2f	.	.
1G	1d	1g	.
.	.	.	2b
=47	=47	=47	=47
2.A	2c	2.e	2.a
.	2.e	.	.
8G	.	4f	4b
8F	.	.	.
2E	.	2g	1cc
.	4d	.	.
2F	[2c	2a	.
=48	=48	=48	=48
1D	2c]	1f	1dd
.	2B	.	.
1C	[1c	2e	[1ee
.	.	[2g	.
=49	=49	=49	=49
2r	1c]	2g]	1ee]
1c	.	2g	.
.	1r	2a	1r
2c	.	2cc	.
=50	=50	=50	=50
2d	1r	4b	2r
.	.	4a	.
2B	.	4g	1g
.	.	4f	.
2.c	2r	4e	.
.	.	4f	.
.	[2c	[2g	2g
4B	.	.	.
=51	=51	=51	=51
4A	2c]	2g]	2a
4G	.	.	.
2A	2c	2f#	2cc
1G	2d	2g	4b
.	.	.	4a
.	2B	[2g	4g
.	.	.	4f
=52	=52	=52	=52
0r	2.c	2g]	4e
.	.	.	4f
.	.	2g	1g
.	4B	.	.
.	4A	2a	.
.	4G	.	.
.	2A	2cc	2f#
=53	=53	=53	=53
2r	1G	4b	2.g
.	.	4a	.
1G	.	4g	.
.	.	4f	4a
.	1g	2e	4b
.	.	.	4cc
2G	.	2d	4dd
.	.	.	4b
=54	=54	=54	=54
2A	2e	1a	2cc
2F	1d	.	2dd
2.G	.	2g	1b
.	2d	[2g	.
4F	.	.	.
=55	=55	=55	=55
4E	2e	2g]	1r
4D	.	.	.
2E	2c	2g	.
1D	2.d	2f	2r
.	.	2a	[2dd
.	4c	.	.
=56	=56	=56	=56
1G	4B	2.g	2dd]
.	4A	.	.
.	2B	.	2dd
.	.	4f	.
1C	2c	4e	2ee
.	.	4d	.
.	2g	2e	2cc
=57	=57	=57	=57
0r	2f	2d	2.dd
.	2.g	2G	.
.	.	.	4cc
.	.	2.g	4b
.	4f	.	4a
.	4e	.	2b
.	4d	4f	.
=58	=58	=58	=58
0r	1c	4e	1cc
.	.	4c	.
.	.	2.g	.
.	1d	.	1a
.	.	8f#	.
.	.	8e	.
.	.	2f#	.
=59	=59	=59	=59
2r	2e	1g	2g
1c	2g	.	1ee
.	2g	1r	.
2c	2a	.	2ee
=60	=60	=60	=60
2d	2f	2r	2ff
2B	4g	1g	2dd
.	4f	.	.
2.c	4e	.	2ee
.	4d	.	.
.	[2e	2g	4ee
4B	.	.	4dd
=61	=61	=61	=61
4A	2e]	2a	4cc
4G	.	.	4b
2A	2c	4f	1cc
.	.	4f	.
2G	1d	2g	.
2G	.	2g	2b
=62	=62	=62	=62
0C	1c	2e	2.cc
.	.	1g	.
.	.	.	4dd
.	2r	.	1ee
.	2c	2cc	.
=63	=63	=63	=63
2r	2f	2a	0r
2G	2d	2.b	.
2c	1e	.	.
.	.	4a	.
2A	.	[2a	.
=64	=64	=64	=64
1B	2.d	2a]	2r
.	.	1g	2g
.	4d	.	.
2.A	1c	.	2cc
.	.	2f#	2a
4A	.	.	.
=65	=65	=65	=65
1G	1d	2g	1b
.	.	2g	.
1r	2r	2cc	2.a
.	2d	2a	.
.	.	.	4a
=66	=66	=66	=66
0r	2g	1b	2g
.	2e	.	2g
.	1f	2a	2cc
.	.	[2dd	2a
=67	=67	=67	=67
0r	2e	4dd]	2b
.	.	8cc	.
.	.	8b	.
.	2.a	2cc	2a
.	.	2.b	2r
.	8g	.	.
.	8f#	.	.
.	2g	.	[2dd
.	.	8a	.
.	.	8g	.
=68	=68	=68	=68
0r	2.f	4a	4dd]
.	.	4f	8cc
.	.	.	8b
.	.	2.a	2cc
.	8e	.	.
.	8d	.	.
.	1e	.	2.b
.	.	4g	.
.	.	[2g	.
.	.	.	8a
.	.	.	8g
=69	=69	=69	=69
1r	1d	2g]	1a
.	.	2f#	.
2r	1G	2.g	1b
2G	.	.	.
.	.	4f	.
=70	=70	=70	=70
2A	1c	1e	0r
2c	.	.	.
2B	2d	1r	.
[2A	2f	.	.
=71	=71	=71	=71
4A]	2e	2r	0r
4G	.	.	.
2F	4d	2f	.
.	4c	.	.
4E	2e	2g	.
4F	.	.	.
4G	[2d	2b-	.
8F	.	.	.
8G	.	.	.
=72	=72	=72	=72
2F	4d]	2a	2r
.	4c	.	.
2E	1c	2g	2cc
1D	.	2.f	2dd
.	2B	.	2ff
.	.	8e	.
.	.	8d	.
=73	=73	=73	=73
2C	1c	2g	2ee
2F	.	2a	4dd
.	.	.	4cc
2G	2r	2g	2ee
2B-	2d	2f	2dd
=74	=74	=74	=74
2A	2e	1.a	2cc
4G	2f	.	2.dd
4F	.	.	.
1A	2e	.	.
.	.	.	4cc
.	4d	2f	[2cc
.	4c	.	.
=75	=75	=75	=75
0G	1e	0g	2cc]
.	.	.	4b
.	.	.	4a
.	1d	.	1b
=76	=76	=76	=76
1C	2c	2r	1cc
.	2g	2e	.
2r	1g	[1e	2r
2c	.	.	2ee
=77	=77	=77	=77
1c	1e	2e]	1ee
.	.	2g	.
2A	1f	2a	2cc
[2B-	.	2d	[2dd
=78	=78	=78	=78
2B-]	2d	2f	2dd]
4A	1e	2.g	4cc
4G	.	.	4b-
2A	.	.	2cc
.	.	8f#	.
.	.	8e	.
2A	4d	2f#	2cc
.	4c	.	.
=79	=79	=79	=79
0G	2d	1g	2b
.	2d	.	2b
.	2d	2r	2b
.	2d	2g	2b
=80	=80	=80	=80
0r	2B	2g	2dd
.	1c	2g	1ee
.	.	2e	.
.	4B	[2a	4dd
.	4A	.	4cc
=81	=81	=81	=81
1r	1B	4a]	1dd
.	.	8g#	.
.	.	8f#	.
.	.	2g#	.
2r	2A	1a	2cc
[2A	2e	.	[2cc
=82	=82	=82	=82
2A]	2c	2e	2cc]
2F	1d	2f	2a
1G	.	1d	1b
.	2B	.	.
=83	=83	=83	=83
2E	1c	2e	2g
1F	.	2.c	1a
.	2A	.	.
.	.	4A	.
4E	[2B	[2d	4g
4D	.	.	4f
=84	=84	=84	=84
2E	2B]	2d]	2g
2E	4A	2c#	2g
.	4G	.	.
1D	2A	1d	1f
.	2a	.	.
=85	=85	=85	=85
2r	1a	1d	1ff
2d	.	.	.
2d	2f	2r	2ff
2B	2g	2g	2dd
=86	=86	=86	=86
1c	4e	2g	1ee
.	4f	.	.
.	4g	2e	.
.	4e	.	.
2A	4a	2f	2cc
.	4g	.	.
[2B-	4f	4d	[2dd
.	4e	4e	.
=87	=87	=87	=87
2B-]	2d	4f	2dd]
.	.	4d	.
4A	1e	1g	4cc
4G	.	.	4b-
1A	.	.	1cc
.	4d	2f#	.
.	4c	.	.
=88	=88	=88	=88
1G	1d	[0g	[0b
2.E	1e	.	.
4F	.	.	.
=89	=89	=89	=89
0G	0d	0g]	0b]
*	*	*	*-
!! Crucifixus
*Itenor	*Icalto	*Icant
!Tenor	!Altus	!Cantus
*clefGv2	*clefG2	*clefG2
*k[]	*k[]	*k[]
*C:ion	*C:ion	*C:ion
*M4/2	*M4/2	*M4/2
=90	=90	=90
0r	1r	0g
.	[1c	.
=91	=91	=91
1r	1c]	1a
[1G	1d	1b
=92	=92	=92
1G]	1e	1g
1A	1c	1r
=93	=93	=93
1B	1r	2.dd
.	.	4dd
1G	2.g	2b
.	.	2b
.	4g	.
=94	=94	=94
1r	2e	2.cc
.	2e	.
.	.	4b
2.d	1f	1a
4d	.	.
=95	=95	=95
2B	2d	1.g
2B	2d	.
2.c	2e	.
.	2e	2g
4B	.	.
=96	=96	=96
1A	2f	2a
.	2e	2a
[1G	1g	2b
.	.	4g
.	.	4a
=97	=97	=97
1G]	2g	4b
.	.	4cc
.	2d	4dd
.	.	4b
1r	2e	2cc
.	2e	2b
=98	=98	=98
0r	2f	2a
.	4d	2dd
.	4e	.
.	4f	2.cc
.	4g	.
.	4a	.
.	4f	4dd
=99	=99	=99
2r	1g	4ee
.	.	4dd
2G	.	1dd
2A	1e	.
2A	.	2cc#
=100	=100	=100
2B	1d	2.dd
4G	.	.
4A	.	4dd
4B	4G	1b
4c	4A	.
4d	4B	.
4e	4c	.
=101	=101	=101
4f	4d	2.a
4g	4e	.
2.a	2f	.
.	.	4b
.	2c	4cc
4g	.	4b
[2g	2e	4a
.	.	4g
=102	=102	=102
2g]	1d	2a
2f#	.	2d
2g	2r	4e
.	.	4f#
2c	2e	4g
.	.	4a
=103	=103	=103
2G	2.g	4b
.	.	4cc
2B	.	2.dd
.	4f	.
2c	2e	.
.	.	4cc
2A	4d	[2cc
.	4c	.
=104	=104	=104
1G	1d	2cc]
.	.	2b
2.c	1e	2cc
.	.	[2ee
4B	.	.
=105	=105	=105
1A	1a	2ee]
.	.	2cc
1r	2f	2dd
.	2g	2ee
=106	=106	=106
0r	2a	4ff
.	.	4ee
.	4b	4dd
.	4a	4cc
.	4g	2dd
.	4f	.
.	2g	[2ee
=107	=107	=107
1.e	4c	4ee]
.	4d	4dd
.	4e	2cc
.	4f	.
.	2g	2b
2c	[2a	2a
=108	=108	=108
2d	2a]	1b
2e	2g#	.
4f	1a	2a
4e	.	.
4d	.	[2dd
4c	.	.
=109	=109	=109
2d	0r	2dd]
2.e	.	2cc
.	.	2b
4d	.	.
4c	.	[2cc
4B	.	.
=110	=110	=110
1A	1c	4cc]
.	.	4b
.	.	1a
1B	2.d	.
.	.	2g#
.	4e	.
=111	=111	=111
2A	2f	1a
2c	2e	.
2d	2f	2r
2e	2e	2g
=112	=112	=112
2.f	1d	2a
.	.	2b
8e	.	.
8d	.	.
2e	1A	2.cc
2f	.	.
.	.	8b
.	.	8a
=113	=113	=113
2g	1e	2b
2e	.	2cc
2f	1r	2dd
4g	.	2b
4f	.	.
=114	=114	=114
4e	1r	0cc
4d	.	.
4c	.	.
4B	.	.
2A	2r	.
[2a	2c	.
=115	=115	=115
2a]	2d	1b
2g#	2e	.
2a	2.f	1a
2d	.	.
.	8e	.
.	8d	.
=116	=116	=116
2e	2c	2r
2f	2d	2a
2.g	2G	2.b
.	2g	.
8f	.	4cc
8e	.	.
=117	=117	=117
2f	2a	1dd
2g	2b	.
4c	2.cc	[1ee
4d	.	.
4e	.	.
4f	8b	.
.	8a	.
=118	=118	=118
2g	2b	1ee]
2a	1cc	.
2f	.	1dd
2g	2b	.
=119	=119	=119
2d	2.a	2r
1f	.	2cc
.	4g	.
.	4a	2dd
.	4b	.
2e	[2cc	2ee
=120	=120	=120
1d	2cc]	2.ff
.	2b	.
.	.	8ee
.	.	8dd
[1c	1cc	2ee
.	.	2ee
=121	=121	=121
1c]	2r	4gg
.	.	4ff
.	2g	4ee
.	.	4dd
1r	2a	2cc
.	2b	2b
=122	=122	=122
0r	2.cc	1a
.	8b	.
.	8a	.
.	2b	2g
.	2b	2dd
=123	=123	=123
2r	4cc	1ee
.	4b	.
2c	4a	.
.	4g	.
2d	2f	2dd
2e	2e	2g
=124	=124	=124
2.f	1d	2a
.	.	2b
8e	.	.
8d	.	.
2e	1c	2.cc
2e	.	.
.	.	8b
.	.	8a
=125	=125	=125
4g	2r	2b
4f	.	.
4e	2g	2b
4d	.	.
2c	2a	2cc
2B	2b	2dd
=126	=126	=126
1A	2.cc	2ee
.	.	2ff
.	8b	.
.	8a	.
1G	2b	2gg
.	2b	2dd
=127	=127	=127
0r	4cc	2ee
.	4b	.
.	4a	4ff
.	4g	4ee
.	2f	4dd
.	.	4cc
.	2e	[2cc
=128	=128	=128
2r	1d	4cc]
.	.	8b
.	.	8a
2G	.	2b
2A	2r	2cc
2B	2d	2dd
=129	=129	=129
2.c	2.e	1g
8B	4f	.
8A	.	.
2B	2g	2r
2c	2e	2g
=130	=130	=130
2F	2f	2a
2G	4e	2b
.	4d	.
1A	4c	2.cc
.	4d	.
.	4e	.
.	4f	8b
.	.	8a
=131	=131	=131
2r	2g	2b
2c	1a	2cc
2d	.	2.b
2e	2g	.
.	.	4cc
=132	=132	=132
2f	2a	1dd
2g	2b	.
[1c	2.cc	2.ee
.	4b	4dd
=133	=133	=133
1c]	2a	2cc
.	1g	2b
1d	.	1a
.	2f#	.
=134	=134	=134
0G	0g	0b
*-	*-	*-
!! Et iterum
**kern	**kern	**kern	**kern
*Ibass	*Itenor	*Icalto	*Icant
!Bassus	!Tenor	!Altus	!Cantus
*clefF4	*clefGv2	*clefG2	*clefG2
*k[]	*k[]	*k[]	*k[]
*C:ion	*C:ion	*C:ion	*C:ion
*M4/2	*M4/2	*M4/2	*M4/2
=135	=135	=135	=135
0r	1r	1d	0r
.	1G	2.g	.
.	.	4g	.
=136	=136	=136	=136
0r	2.c	1g	2r
.	.	.	2g
.	4c	.	.
.	2c	1e	2.cc
.	2c	.	.
.	.	.	4cc
=137	=137	=137	=137
0r	2.f	2.a	2cc
.	.	.	2cc
.	4e	8g	.
.	.	8a	.
.	4d	2b-	4ff
.	4c	.	4ee
.	2d	[2a	4dd
.	.	.	4cc
=138	=138	=138	=138
1r	2B	4a]	2dd
.	.	4g	.
.	2c	1g	2ee
1D	2A	.	2dd
.	[2d	2f#	2a
=139	=139	=139	=139
2.G	2d]	2r	4b
.	.	.	8a
.	.	.	8b
.	2e	2g	1cc
4G	.	.	.
1G	2d	2.g	.
.	[2g	.	2b
.	.	4g	.
=140	=140	=140	=140
2.c	4g]	2e	1cc
.	4f	.	.
.	4e	2.cc	.
4B	4d	.	.
4A	2e	.	1r
4G	.	4b	.
2A	[2f	4a	.
.	.	4g	.
=141	=141	=141	=141
2F	4f]	2a	0r
.	4e	.	.
1G	4d	2b	.
.	4c	.	.
.	2B	2g	.
4F	[2c	[2a	.
4E	.	.	.
=142	=142	=142	=142
1D	2c]	2a]	2r
.	2B	4g	2dd
.	.	4f	.
2C	[1c	2e	2.ee
2c	.	2g	.
.	.	.	8dd
.	.	.	8ee
=143	=143	=143	=143
2A	1c]	2a	2ff
2c	.	2g	2ee
2G	1r	2.b	2.dd
2G	.	.	.
.	.	4a	4cc
=144	=144	=144	=144
1G	2r	4g	1b
.	.	4f	.
.	2g	4e	.
.	.	4d	.
1r	2e	4c	[1cc
.	.	4d	.
.	2g	2e	.
=145	=145	=145	=145
0r	2.d	2f#	2cc]
.	.	1g	2b
.	4d	.	.
.	[1d	.	2a
.	.	2f#	2a
=146	=146	=146	=146
1G	1d]	0g	2.b
.	.	.	8a
.	.	.	8b
2E	2r	.	2cc
2G	2d	.	2b
=147	=147	=147	=147
2C	2.e	2r	0cc
2c	.	2g	.
.	8d	.	.
.	8e	.	.
2A	2f	2.a	.
2c	2e	.	.
.	.	8g	.
.	.	8a	.
=148	=148	=148	=148
2G	1.d	2b-	2r
2F#	.	2a	2dd
[1G	.	[1g	2b
.	2B	.	2dd
=149	=149	=149	=149
2G]	1e	1g]	2g
2E	.	.	2b
1A	1c	1e	2cc
.	.	.	2ee
=150	=150	=150	=150
1F	2.f	2a	4dd
.	.	.	4cc
.	.	2a	1cc
.	4e	.	.
1G	1d	1g	.
.	.	.	2b
=151	=151	=151	=151
2.A	2c	1e	0cc
.	1e	.	.
8G	.	.	.
8F	.	.	.
2E	.	2r	.
[2F	2c	[2a	.
=152	=152	=152	=152
2F]	2d	2a]	0r
2E	2e	2g	.
1D	2f	2a	.
.	4e	2b	.
.	4d	.	.
=153	=153	=153	=153
0A	2.e	2.cc	2r
.	.	.	1ee
.	4d	4b	.
.	4c	4a	.
.	4B	4g	.
.	2A	2a	2cc
=154	=154	=154	=154
0r	2B	1g	2dd
.	2c	.	2ee
.	[1d	2f	4ff
.	.	.	4ee
.	.	4f	4dd
.	.	4g	4cc
=155	=155	=155	=155
0r	2d]	4a	2dd
.	.	4b	.
.	4c	2.cc	1ee
.	4B	.	.
.	2c	.	.
.	.	4b	.
.	2d	[2a	4dd
.	.	.	4cc
=156	=156	=156	=156
1r	1e	2a]	2b
.	.	2g#	2b
[1A	2r	1a	2.cc
.	2e	.	.
.	.	.	4cc
=157	=157	=157	=157
2A]	2c	0r	1a
2F	2d	.	.
2G	2e	.	1r
2A	4f	.	.
.	4e	.	.
=158	=158	=158	=158
4B-	4d	0r	0r
4A	4c	.	.
4G	2.d	.	.
4F	.	.	.
2G	.	.	.
.	4e	.	.
[2A	2c	.	.
=159	=159	=159	=159
2A]	1B	2r	1r
2G#	.	1e	.
2.A	1A	.	2r
.	.	2c	[2a
4G	.	.	.
=160	=160	=160	=160
2F	0r	2d	2a]
2E	.	2e	2g
1D	.	2f	2a
.	.	4e	2b
.	.	4d	.
=161	=161	=161	=161
0r	0r	2c	2cc
.	.	2d	4b
.	.	.	4a
.	.	2e	2g
.	.	2f	2a
=162	=162	=162	=162
0r	1.e	4g	1b
.	.	4f	.
.	.	4e	.
.	.	4d	.
.	.	4c	2cc
.	.	4A	.
.	2c	[2a	2cc
=163	=163	=163	=163
1r	2d	2a]	1b
.	2e	2g#	.
2r	2f	1a	[1a
[2A	4e	.	.
.	4d	.	.
=164	=164	=164	=164
2A]	2c	0r	1a]
2F	2d	.	.
2G	2e	.	1r
2A	4f	.	.
.	4e	.	.
=165	=165	=165	=165
4B-	4d	1r	0r
4A	4c	.	.
4G	2d	.	.
4F	.	.	.
2G	2.e	2r	.
[2A	.	[2a	.
.	4d	.	.
=166	=166	=166	=166
2A]	2c	2a]	0r
2D	2d	2f	.
2.E	2B	2g	.
.	2B	2g	.
8D	.	.	.
8E	.	.	.
=167	=167	=167	=167
4F	1A	2.a	2r
4G	.	.	.
4A	.	.	1ee
4B	.	8g	.
.	.	8f	.
2c	2r	2e	.
2F	[2a	4f	2cc
.	.	4e	.
=168	=168	=168	=168
0r	2a]	4d	2dd
.	.	4c	.
.	2f	2d	2dd
.	2g	1c	2.ee
.	2a	.	.
.	.	.	8dd
.	.	.	8cc
=169	=169	=169	=169
2r	4g	1.e	2b
.	4f	.	.
1A	4e	.	4cc
.	4d	.	4b
.	4c	.	4a
.	4A	.	4g
2F	[2c	2f	2a
=170	=170	=170	=170
2G	2c]	2e	1g
2G	2B	2d	.
2.A	2c	2.c	2.e
.	[2e	.	.
8G	.	8B	4f
8F	.	8A	.
=171	=171	=171	=171
2E	2e]	2G	2g
2F	2c	1c	2a
1D	2d	.	1f
.	2d	2B	.
=172	=172	=172	=172
1C	2.e	1c	2r
.	.	.	2cc
.	8d	.	.
.	8c	.	.
1r	2B	2r	2dd
.	4c	2e	2g
.	4B	.	.
=173	=173	=173	=173
2r	4A	2f	4a
.	4G	.	4b
2c	2A	2e	4cc
.	.	.	4a
2d	1G	2.g	1b
2G	.	.	.
.	.	4f	.
=174	=174	=174	=174
4A	2r	4e	2cc
4B	.	4d	.
4c	2c	2e	2.a
4A	.	.	.
2B	2d	2d	.
.	.	.	4g
2c	2e	[2c	[2g
=175	=175	=175	=175
1A	2c	2c]	2g]
.	2c	1cc	2f#
1G	1d	.	1g
.	.	2b	.
=176	=176	=176	=176
2r	2c	2cc	2r
1F	1f	1a	1cc
2E	2g	2g	2cc
=177	=177	=177	=177
2F	2a	2f	2cc
2D	2f	2a	2dd
[1C	4g	2cc	2ee
.	4f	.	.
.	4e	[2cc	4gg
.	4d	.	4ff
=178	=178	=178	=178
1C]	1c	4cc]	4ee
.	.	4b	4dd
.	.	4a	2cc
.	.	4g	.
1r	1r	2f	2dd
.	.	2e	[2ee
=179	=179	=179	=179
1r	2r	4c	4ee]
.	.	4d	4dd
.	2c	4e	1cc
.	.	4c	.
2r	2f	1d	.
2G	2d	.	2b
=180	=180	=180	=180
2c	1e	1c	1cc
2A	.	.	.
1B	2d	1r	1r
.	[2g	.	.
=181	=181	=181	=181
2A	4g]	0r	0r
.	4f	.	.
2.d	2f	.	.
.	2.e	.	.
4c	.	.	.
2c	.	.	.
.	8d	.	.
.	8c	.	.
=182	=182	=182	=182
2.B	2d	0r	2r
.	1g	.	2g
8A	.	.	.
8G	.	.	.
2A	.	.	2cc
2A	2f#	.	2a
=183	=183	=183	=183
1G	1g	2r	2.b
.	.	2d	.
.	.	.	4b
1d	1r	2f	2a
.	.	2d	[2dd
=184	=184	=184	=184
2A	0r	2.e	4dd]
.	.	.	4cc
2c	.	.	2cc
.	.	4d	.
2.G	.	2d	2.b
.	.	[2g	.
4G	.	.	8a
.	.	.	8g
=185	=185	=185	=185
1D	2r	4g]	2a
.	.	4f	.
.	2d	2f	2a
1r	2g	2.e	2g
.	2e	.	[2cc
.	.	8d	.
.	.	8c	.
=186	=186	=186	=186
0r	2.f	2d	4cc]
.	.	.	4b
.	.	2d	2b
.	4f	.	.
.	2e	2c	2.a
.	[2d	[2f	.
.	.	.	8g
.	.	.	8a
=187	=187	=187	=187
0r	4d]	4f]	4b-
.	4c	4e	4a
.	2c	2e	2.a
.	2.B	2d	.
.	.	.	4g
.	.	4c	[2g
.	8A	4B	.
.	8G	.	.
=188	=188	=188	=188
2r	2A	2c	2g]
2D	2A	2d	2f#
2G	2G	1B	1g
2E	2G	.	.
=189	=189	=189	=189
1F	2c	2r	0r
.	2A	2d	.
2E	2B	2g	.
[2A	4A	2e	.
.	4B	.	.
=190	=190	=190	=190
2A]	4c	2f	0r
.	4d	.	.
2G	2.e	2e	.
2.F	.	[1a	.
.	4d	.	.
.	2d	.	.
8E	.	.	.
8D	.	.	.
=191	=191	=191	=191
1E	2c	2a]	0r
.	2B	2g	.
2D	1d	2.f	.
[2d	.	.	.
.	.	8e	.
.	.	8d	.
=192	=192	=192	=192
2d]	1A	1e	1r
2c#	.	.	.
2d	2r	1d	2r
[2G	[2d	.	[2b
=193	=193	=193	=193
2G]	2d]	2.g	2b]
2G	2d	.	2b
.	.	4g	.
2G	2d	2g	2b
2G	2d	2g	2b
=194	=194	=194	=194
1c	1.e	1g	1.cc
1A	.	2a	.
.	2e	[2a	2cc
=195	=195	=195	=195
2F	2f	2a]	2cc
2G	2d	4g	2b
.	.	4f	.
1A	1c	2e	2.cc
.	.	2f#	.
.	.	.	4a
=196	=196	=196	=196
0G	1d	2.g	4b
.	.	.	4cc
.	.	.	2.cc
.	.	8f	.
.	.	8e	.
.	1B	2d	.
.	.	.	4b
.	.	[2g	2b
=197	=197	=197	=197
1r	1d	2g]	1a
.	.	2f#	.
2r	2e	[1g	2.g
2E	2e	.	.
.	.	.	4a
=198	=198	=198	=198
1G	2d	1g]	1b
.	2B	.	.
2A	2c	2r	1r
2A	2c	2e	.
=199	=199	=199	=199
2G	2B	1g	0r
2E	2e	.	.
2F	4A	2a	.
.	4B	.	.
2F	4c	2a	.
.	4d	.	.
=200	=200	=200	=200
2E	2e	2g	1r
2A	2c	2e	.
4D	1d	2f	2r
4E	.	.	.
4F	.	2f	2a
4G	.	.	.
=201	=201	=201	=201
2A	2c	2e	1cc
2F	1f	2a	.
1B-	.	4d	2dd
.	.	4e	.
.	2d	4f	2dd
.	.	4g	.
=202	=202	=202	=202
1A	2e	2.a	2cc
.	2f	.	2a
.	.	8g	.
.	.	8f	.
1r	2g	2e	2b
.	2G	2g	2b
=203	=203	=203	=203
0r	2A	2.f	2a
.	2B	.	2dd
.	.	4d	.
.	2c	4e	4g
.	.	4f	4a
.	4B	[2g	4b
.	4A	.	4cc
=204	=204	=204	=204
0r	2B	4g]	2dd
.	.	4f	.
.	2c	2e	1cc
.	1G	2d	.
.	.	2g	2b
=205	=205	=205	=205
2r	1c	1.g	2cc
2c	.	.	2ee
1c	1r	.	1ee
.	.	2e	.
=206	=206	=206	=206
2A	2r	2f	2cc
2B-	2d	2f	2dd
2B-	2f	2d	2dd
2G	2g	[2e	2b
=207	=207	=207	=207
2.A	1e	4e]	2.cc
.	.	4d	.
.	.	1c	.
4G	.	.	4b
2F	2f	.	2a
2G	2d	2B	2b
=208	=208	=208	=208
1C	2.e	2.c	1g
.	4d	4d	.
1r	2c	2e	1a
.	2d	2f	.
=209	=209	=209	=209
1r	2B	2d	0g
.	1c	1e	.
1G	.	.	.
.	4B	4d	.
.	4A	4c	.
=210	=210	=210	=210
1G	1B	2d	2r
.	.	2g	2dd
2E	1c	2g	2ee
2F	.	2a	2cc
=211	=211	=211	=211
2F	2d	2f	2ff
2D	2d	1a	2ff
2.E	2c	.	1ee
.	2B	[2g	.
4D	.	.	.
=212	=212	=212	=212
2C	2A	2g]	2r
2D	2A	2f#	2dd
1G	2G	2g	1dd
.	2g	2d	.
=213	=213	=213	=213
0r	1g	1e	2b
.	.	.	2cc
.	2e	2c	2cc
.	2f	2d	2a
=214	=214	=214	=214
0r	2f	2d	2.b
.	2d	2B	.
.	.	.	4a
.	2.e	2.c	1g
.	4d	4d	.
=215	=215	=215	=215
1r	2c	2e	1a
.	2d	2f	.
2r	2B	2d	2g
2c	2e	2c	4cc
.	.	.	4dd
=216	=216	=216	=216
1c	1g	1.cc	4ee
.	.	.	4ff
.	.	.	4gg
.	.	.	4ee
2A	2a	.	2.ff
2B-	2f	[2b-	.
.	.	.	4ee
=217	=217	=217	=217
2B-	2.g	2b-]	4dd
.	.	.	4cc
2G	.	2b-	2.dd
.	4f	.	.
2.A	2e	2a	.
.	.	.	4cc
.	2f	2a	[2cc
4G	.	.	.
=218	=218	=218	=218
2F	1d	2a	2cc]
2G	.	4g	2b
.	.	4f	.
1A	1c	2e	2cc
.	.	2f#	2cc
=219	=219	=219	=219
0G	0d	0g	0b
=220	=220	=220	=220
0C	0c	0g	0cc
=221	=221	=221	=221
0C	0c	0e	0cc
==	==	==	==
*-	*-	*-	*-
!!!CDT: 1525/^1526/-1594/2/2
!!!OCY: Italia
!!!AGN: Mass (Parody)
!!!AST: renaissance, vocal
!!!ASW: Motet 1532 (Johannes Lupi)
!!!PWK: Masses, Book 6
!!!RNB: Cadence finals: G
!!!YOR: Le Opere Complete, v. 21, p. 73
!!!YOO: Rome, Italy: Fratelli Scalera
!!!END: 1992//
!!!EED: John Miller
!!!YEC: Copyright 2000, John Miller
!!!YEN: United States of America
!!!YEM: Rights to all derivative electronic formats reserved.
!!!YEM: Refer to licensing agreement for further details.
!!!YEM: This file must be accompanied by the licensing agreement.
!!!YEM: A copy of the licensing agreement may be found at http://www.music-cog.ohio-state.edu/HumdrumDatabases/Palestrina/license.txt
!!!EMD: converted to Humdrum by Bret Aarden
